!! 00032] TT[TB
!! NN
!!!OTL: Cheshui qingge
!!!ARE: Asia, China,ÿHubei, Tianmeng, Qianyi
!! Ethnic Group: Han
!! I, 438
!!!SCT: C0111
!!!YEM: Copyright 1995, estate of Helmut Schaffrath.
**kern
*ICvox
*Ivox
*M2/4
*k[f#c#]
*D:
{8dd
16dd
16ee
4a
=1
8dd
16dd
16ee
4a
=2
8.dd
16a
8dd
8a
=3
8.dd
16ee
4a}
=4
{16dd
16dd
16dd
16dd
4ffn
=5
16dd
16dd
16dd
16ccn
4a}
=6
{8.f#
16a
16f#
16a
16a
16f#
=7
16a
16b
16a
16f#
4a}
=8
{8a
4a
8f#
=9
4a
8a
8f#
=10
16a
16b
16a
16f#
4a}
=11
{8dd
16dd
16ee
4a
=12
4dd
4dd}
=13
{8a
8a
4f#
=14
4a
4dd}
=15
{8.f#
16a
8a
8a
=16
8a
4a
8f#
=17
4a
4a}
=18
{16.a
32b
16a
16f#
16a
16a
16a
16f#
=19
16.a
32b
16a
16f#
16a
16a
16a
16f#
=20
16.a
32b
16a
16f#
16.a
32b
16a
16f#}
=21
{8a
4a
8f#
=22
4a
4a}
=23
{8f#
16f#
16e
8d
8f#
=24
16e
16f#
8d
4e}
==
!!!AGN: Shange, Tiange, Cheshuige. Biaoda aiqing
!! Interpretiert als Wechsel von 2 pentatonischen Tonarten
!!    mit gleicher Tonika.
!!    Die letzten beiden Takte werden in der 4. Strophe durch den folgenden
!!    Schluss ersetzt, Strophenvariante):
!!    +1__+1_+2_5_3_+1_5_  5__5__5_3_
!!    +1_5_  5___5_3_+1_5_  5___5_3_
!!    +1_5_  5__.5_5__3__  5___5_3_
!!    +1_5_  5__.5_5__3__  5___5___
!!    +3__+3_+2_+1__+3__  +2_+3_+1__+2___ //
!!    Nur in dieser Variante sind Atemzeichen eingetragen, die die verschie-
!!    denen Motivvarianten verdeutlichen.
!!    Wenig Verzierungen.
!!!ONB: ESAC (Essen Associative Code) Database: CHINA
!!!AMT: simple duple
!!!AIN: vox
!!!EED: Helmut Schaffrath
!!!EEV: 1.0
*-
